src/actions/32/labplot-zoom-out-y.svg

<svg viewBox="0 0 32 32" xmlns="http://www.w3.org/2000/svg">
 <defs>
  <style type="text/css">.ColorScheme-Text {
        color:#2e3440;
      }</style>
 </defs>
 <path class="ColorScheme-Text" d="m4 4v1 3h1v-3h3v-1h-4zm6 0v1h3v3h1v-4h-4zm7 0v1h10v10h1v-11h-11zm-13 6v4h1 3v-1h-3v-3h-1zm9 0v3h-3v1h4v-1-3h-1zm9.5 5v11.086l-3.793-3.793-0.70703 0.70703 5 5 5-5-0.70703-0.70703-3.793 3.793v-11.086h-1zm-18.5 2v10 1h1 10v-1h-10v-10h-1z" fill="currentColor"/>
</svg>

<svg xmlns="http://www.w3.org/2000/svg" viewBox="0 0 32 32">
  <defs id="defs3051">
    <style type="text/css" id="current-color-scheme">
      .ColorScheme-Text {
        color:#2e3440;
      }
      </style>
  </defs>
 <path style="fill:currentColor;fill-opacity:1;stroke:none" 
       d="M 4 4 L 4 5 L 4 8 L 5 8 L 5 5 L 8 5 L 8 4 L 4 4 z M 10 4 L 10 5 L 13 5 L 13 8 L 14 8 L 14 4 L 10 4 z M 17 4 L 17 5 L 27 5 L 27 15 L 28 15 L 28 4 L 17 4 z M 4 10 L 4 14 L 5 14 L 8 14 L 8 13 L 5 13 L 5 10 L 4 10 z M 13 10 L 13 13 L 10 13 L 10 14 L 14 14 L 14 13 L 14 10 L 13 10 z M 22.5 15 L 22.5 26.085938 L 18.707031 22.292969 L 18 23 L 23 28 L 24 27 L 28 23 L 27.292969 22.292969 L 23.5 26.085938 L 23.5 15 L 22.5 15 z M 4 17 L 4 27 L 4 28 L 5 28 L 15 28 L 15 27 L 5 27 L 5 17 L 4 17 z "
     class="ColorScheme-Text"
     />
</svg>
